img/school/self-service/4.svg

<svg width="102" height="102" viewBox="0 0 102 102" fill="none" xmlns="http://www.w3.org/2000/svg">
<path d="M20.1299 72.4277L3.58991 88.9977C0.779915 91.8077 0.15992 95.7477 2.96992 98.5477C5.77992 101.348 9.40992 100.998 12.2199 98.1876L28.7699 81.6477L20.1299 72.4277Z" stroke="#009245" stroke-width="2" stroke-miterlimit="10"/>
<path d="M60.57 71.5474C77.3043 71.5474 90.87 57.9815 90.87 41.2473C90.87 24.5131 77.3043 10.9473 60.57 10.9473C43.8358 10.9473 30.27 24.5131 30.27 41.2473C30.27 57.9815 43.8358 71.5474 60.57 71.5474Z" stroke="#009245" stroke-width="2" stroke-miterlimit="10"/>
<path d="M60.5699 80.707C82.363 80.707 100.03 63.0402 100.03 41.2471C100.03 19.4539 82.363 1.78711 60.5699 1.78711C38.7767 1.78711 21.1099 19.4539 21.1099 41.2471C21.1099 63.0402 38.7767 80.707 60.5699 80.707Z" stroke="#009245" stroke-width="2" stroke-miterlimit="10"/>
<path d="M33.17 68.3184L24.5 76.9884" stroke="#009245" stroke-width="2" stroke-miterlimit="10"/>
</svg>

<svg width="102" height="102" fill="none" xmlns="http://www.w3.org/2000/svg"><path d="M20.13 72.428L3.59 88.998c-2.81 2.81-3.43 6.75-.62 9.55 2.81 2.8 6.44 2.45 9.25-.36l16.55-16.54-8.64-9.22zm40.44-.881c16.734 0 30.3-13.566 30.3-30.3s-13.566-30.3-30.3-30.3-30.3 13.566-30.3 30.3 13.566 30.3 30.3 30.3z" stroke="#009245" stroke-width="2" stroke-miterlimit="10"/><path d="M60.57 80.707c21.793 0 39.46-17.667 39.46-39.46S82.363 1.787 60.57 1.787s-39.46 17.667-39.46 39.46 17.667 39.46 39.46 39.46zm-27.4-12.389l-8.67 8.67" stroke="#009245" stroke-width="2" stroke-miterlimit="10"/></svg>
